src/standard/laptop.svg

<svg xmlns="http://www.w3.org/2000/svg" viewBox="0 0 36 36">
  <path d="M18 9.62a.62.62 0 1 0-.62-.62.61.61 0 0 0 .62.62Z"/>
  <path d="M6 24.62h24a.61.61 0 0 0 .62-.62V9a.61.61 0 0 0-.62-.62h-9a.62.62 0 1 0 0 1.24h8.38v13.76H6.62V9.62H15a.62.62 0 0 0 0-1.24H6a.61.61 0 0 0-.62.62v15a.61.61 0 0 0 .62.62Zm26 1.76H4a.62.62 0 1 0 0 1.24h28a.62.62 0 1 0 0-1.24Z"/>
</svg>

<svg id="fefc13ea-72fe-4374-b01d-345b3eb1982b" data-name="Icon" xmlns="http://www.w3.org/2000/svg" viewBox="0 0 36 36">
  <title>Laptop icon - Black</title>
<desc>computer, screen, open, notebook, PC, device, hardware</desc>
<metadata><?xpacket begin="﻿" id="W5M0MpCehiHzreSzNTczkc9d"?>
<x:xmpmeta xmlns:x="adobe:ns:meta/" x:xmptk="Adobe XMP Core 8.0-c001 1.000000, 0000/00/00-00:00:00        ">
   <rdf:RDF xmlns:rdf="http://www.w3.org/1999/02/22-rdf-syntax-ns#">
      <rdf:Description rdf:about=""
            xmlns:xmp="http://ns.adobe.com/xap/1.0/"
            xmlns:dc="http://purl.org/dc/elements/1.1/"
            xmlns:cq="http://www.day.com/jcr/cq/1.0"
            xmlns:tiff="http://ns.adobe.com/tiff/1.0/">
         <xmp:rhcc-effective-on>2023-12-08T17:34:16.609Z</xmp:rhcc-effective-on>
         <xmp:rhcc-metadata-complete-moderator>pending</xmp:rhcc-metadata-complete-moderator>
         <xmp:rhcc-translation-id>TRA018635a1-c615-4ca1-b23d-833d8c279dfe</xmp:rhcc-translation-id>
         <xmp:brand-content-type>Icon</xmp:brand-content-type>
         <xmp:CreateDate>2023-12-08T17:34:16.609Z</xmp:CreateDate>
         <xmp:rhcc-effective-on-set-on-upload>true</xmp:rhcc-effective-on-set-on-upload>
         <xmp:rhcc-metadata-complete-uploader>pending</xmp:rhcc-metadata-complete-uploader>
         <xmp:rhcc-file-last-modified>2023-12-08T17:34:26.660Z</xmp:rhcc-file-last-modified>
         <xmp:rhcc-audience>rhcc-audience:internal</xmp:rhcc-audience>
         <xmp:rhcc-rights-restricted>no</xmp:rhcc-rights-restricted>
         <xmp:brand-content-subtype>Icon</xmp:brand-content-subtype>
         <xmp:rhcc-derivative-id>DER018635a1-c615-4ca1-b23d-833d8c279dfe</xmp:rhcc-derivative-id>
         <xmp:brand-logo-color>Black</xmp:brand-logo-color>
         <xmp:rhcc-notify-portal-subscribers-on-change>yes</xmp:rhcc-notify-portal-subscribers-on-change>
         <dc:format>image/svg+xml</dc:format>
         <dc:modified>2024-02-09T20:11:51.618Z</dc:modified>
         <dc:title>
            <rdf:Alt>
               <rdf:li xml:lang="x-default">Laptop icon - Black</rdf:li>
            </rdf:Alt>
         </dc:title>
         <dc:description>
            <rdf:Alt>
               <rdf:li xml:lang="x-default">computer, screen, open, notebook, PC, device, hardware</rdf:li>
            </rdf:Alt>
         </dc:description>
         <cq:lastReplicationAction_scene7>Activate</cq:lastReplicationAction_scene7>
         <cq:lastReplicationAction_publish>Activate</cq:lastReplicationAction_publish>
         <cq:lastReplicated_publish>2024-02-09T21:47:21.291Z</cq:lastReplicated_publish>
         <cq:lastReplicatedBy>workflow-process-service</cq:lastReplicatedBy>
         <cq:lastReplicationAction>Activate</cq:lastReplicationAction>
         <cq:lastReplicatedBy_publish>workflow-process-service</cq:lastReplicatedBy_publish>
         <cq:isDelivered>true</cq:isDelivered>
         <cq:lastReplicated>2024-02-09T21:47:21.291Z</cq:lastReplicated>
         <cq:lastReplicatedBy_scene7>workflow-process-service</cq:lastReplicatedBy_scene7>
         <cq:lastReplicated_scene7>2024-02-09T21:47:21.291Z</cq:lastReplicated_scene7>
         <tiff:ImageLength>36</tiff:ImageLength>
         <tiff:ImageWidth>36</tiff:ImageWidth>
      </rdf:Description>
   </rdf:RDF>
</x:xmpmeta>
                                                                                                    
                                                                                                    
                                                                                                    
                                                                                                    
                                                                                                    
                                                                                                    
                                                                                                    
                                                                                                    
                                                                                                    
                                                                                                    
                                 
<?xpacket end="w"?></metadata>
<path d="M18,9.62A.62.62,0,1,0,17.38,9,.61.61,0,0,0,18,9.62Z"/>
  <g>
    <path d="M6,24.62H30a.61.61,0,0,0,.62-.62V9A.61.61,0,0,0,30,8.38H21a.62.62,0,1,0,0,1.24h8.38V23.38H6.62V9.62H15a.62.62,0,0,0,0-1.24H6A.61.61,0,0,0,5.38,9V24A.61.61,0,0,0,6,24.62Z"/>
    <path d="M32,26.38H4a.62.62,0,1,0,0,1.24H32a.62.62,0,1,0,0-1.24Z"/>
  </g>
</svg>
